icons/salesforce/salesforce-plain.svg

<?xml version="1.0" encoding="UTF-8" standalone="no"?>
<svg
   xmlns:dc="http://purl.org/dc/elements/1.1/"
   xmlns:cc="http://creativecommons.org/ns#"
   xmlns:rdf="http://www.w3.org/1999/02/22-rdf-syntax-ns#"
   xmlns:svg="http://www.w3.org/2000/svg"
   xmlns="http://www.w3.org/2000/svg"
   xmlns:sodipodi="http://sodipodi.sourceforge.net/DTD/sodipodi-0.dtd"
   xmlns:inkscape="http://www.inkscape.org/namespaces/inkscape"
   version="1.1"
   id="Layer_1"
   viewBox="0 0 128 128"
   style="enable-background:new 0 0 128 128;"
   xml:space="preserve"
   sodipodi:docname="salesforce-plain.svg"
   inkscape:version="1.0.2-2 (e86c870879, 2021-01-15)"><metadata
   id="metadata33"><rdf:RDF><cc:Work
       rdf:about=""><dc:format>image/svg+xml</dc:format><dc:type
         rdf:resource="http://purl.org/dc/dcmitype/StillImage" /></cc:Work></rdf:RDF></metadata><defs
   id="defs31">
	
	
	
	
	
	
	
	
	
	
	
</defs><sodipodi:namedview
   pagecolor="#ffffff"
   bordercolor="#666666"
   borderopacity="1"
   objecttolerance="10"
   gridtolerance="10"
   guidetolerance="10"
   inkscape:pageopacity="0"
   inkscape:pageshadow="2"
   inkscape:window-width="1440"
   inkscape:window-height="748"
   id="namedview29"
   showgrid="false"
   inkscape:zoom="4.53125"
   inkscape:cx="64"
   inkscape:cy="70.485658"
   inkscape:window-x="-6"
   inkscape:window-y="-6"
   inkscape:window-maximized="1"
   inkscape:current-layer="Layer_1" />
<path
   id="path4"
   d="M 33.970703 22.029297 C 20.740703 22.029297 10.019531 32.739219 10.019531 45.949219 C 10.019531 49.329219 10.720234 52.550937 11.990234 55.460938 C 5.840238 59.050936 1.6992188 65.770703 1.6992188 73.470703 C 1.6992188 84.950703 10.909297 94.259766 22.279297 94.259766 C 23.729297 94.259766 25.149766 94.110313 26.509766 93.820312 C 29.629766 102.29031 37.760547 108.33008 47.310547 108.33008 C 56.480547 108.33008 64.340703 102.76031 67.720703 94.820312 C 70.290703 96.080315 73.170703 96.779297 76.220703 96.779297 C 83.500703 96.779297 89.849685 92.770078 93.179688 86.830078 C 94.879688 87.170078 96.629922 87.349609 98.419922 87.349609 C 113.09992 87.349609 125 75.339297 125 60.529297 C 125 45.729297 113.09992 33.720703 98.419922 33.720703 C 94.589922 33.720703 90.959922 34.539766 87.669922 36.009766 C 83.889922 29.269766 76.790391 24.730469 68.650391 24.730469 C 62.520391 24.730469 56.989766 27.299453 53.009766 31.439453 C 48.639766 25.719453 41.730703 22.019297 33.970703 22.029297 z M 73.5 52.160156 C 73.87 52.160156 74.200703 52.180469 74.470703 52.230469 C 74.740703 52.280469 74.949686 52.330391 75.179688 52.400391 C 75.229686 52.420391 75.370547 52.490156 75.310547 52.660156 L 74.759766 54.160156 C 74.719766 54.270156 74.679219 54.339531 74.449219 54.269531 C 74.389219 54.249531 74.300078 54.229687 74.080078 54.179688 C 73.920078 54.139688 73.700234 54.119141 73.490234 54.119141 C 73.200234 54.119141 72.950703 54.160469 72.720703 54.230469 C 72.500703 54.300469 72.299141 54.419609 72.119141 54.599609 C 71.939141 54.779609 71.729141 55.039375 71.619141 55.359375 C 71.359141 56.109375 71.250234 56.920703 71.240234 56.970703 L 73.529297 56.970703 C 73.719297 56.970703 73.779766 57.059219 73.759766 57.199219 L 73.490234 58.689453 C 73.450234 58.909453 73.25 58.900391 73.25 58.900391 L 70.900391 58.900391 L 69.289062 68.009766 C 69.119062 68.949766 68.910156 69.760156 68.660156 70.410156 C 68.410156 71.070156 68.150469 71.549766 67.730469 72.009766 C 67.340469 72.429766 66.910156 72.749683 66.410156 72.929688 C 65.920156 73.109685 65.320156 73.199219 64.660156 73.199219 C 64.340156 73.199219 64.009375 73.189609 63.609375 73.099609 C 63.329375 73.029609 63.170938 72.980156 62.960938 72.910156 C 62.870936 72.870156 62.799609 72.759141 62.849609 72.619141 C 62.899609 72.479141 63.320859 71.319922 63.380859 71.169922 C 63.460859 70.989922 63.640625 71.060547 63.640625 71.060547 C 63.770625 71.110547 63.859297 71.149687 64.029297 71.179688 C 64.199297 71.209688 64.429609 71.240234 64.599609 71.240234 C 64.909609 71.240234 65.189453 71.199141 65.439453 71.119141 C 65.739453 71.019141 65.909844 70.849141 66.089844 70.619141 C 66.279844 70.369141 66.429844 70.039609 66.589844 69.599609 C 66.749844 69.149609 66.899531 68.559844 67.019531 67.839844 L 68.619141 58.900391 L 67.039062 58.900391 C 66.849063 58.900391 66.790547 58.809922 66.810547 58.669922 L 67.080078 57.179688 C 67.120078 56.959688 67.320312 56.970703 67.320312 56.970703 L 68.939453 56.970703 L 69.029297 56.490234 C 69.279297 55.060234 69.760703 53.97 70.470703 53.25 C 71.190703 52.53 72.21 52.160156 73.5 52.160156 z M 41.150391 52.380859 L 43.050781 52.380859 C 43.170781 52.380859 43.259766 52.479609 43.259766 52.599609 L 43.259766 67.849609 C 43.259766 67.969609 43.170781 68.070319 43.050781 68.070312 L 41.150391 68.070312 C 41.030391 68.070312 40.949219 67.969609 40.949219 67.849609 L 40.949219 52.599609 C 40.949219 52.479609 41.030391 52.380859 41.150391 52.380859 z M 98.599609 56.730469 C 99.189609 56.730469 99.719686 56.769844 100.17969 56.839844 C 100.66969 56.909844 101.31984 57.079453 101.58984 57.189453 C 101.63984 57.209453 101.7807 57.279453 101.7207 57.439453 C 101.5207 57.999453 101.37922 58.370859 101.19922 58.880859 C 101.11922 59.100859 100.94922 59.029297 100.94922 59.029297 C 100.25922 58.809297 99.590703 58.710938 98.720703 58.710938 C 97.680703 58.710937 96.890859 59.060234 96.380859 59.740234 C 95.860859 60.420234 95.570313 61.319531 95.570312 62.519531 C 95.570312 63.839531 95.900469 64.810156 96.480469 65.410156 C 97.070469 66.010156 97.880391 66.310547 98.900391 66.310547 C 99.320391 66.310547 99.710544 66.280469 100.06055 66.230469 C 100.41055 66.180469 100.72906 66.069219 101.03906 65.949219 C 101.03906 65.949219 101.24055 65.870078 101.31055 66.080078 L 101.83984 67.5 C 101.89984 67.68 101.75 67.75 101.75 67.75 C 100.95 68.06 99.839766 68.279297 98.759766 68.279297 C 96.929766 68.279297 95.519844 67.750938 94.589844 66.710938 C 93.649844 65.680937 93.179688 64.259766 93.179688 62.509766 C 93.179688 61.699766 93.289531 60.940234 93.519531 60.240234 C 93.749531 59.540234 94.100781 58.930156 94.550781 58.410156 C 95.000781 57.890156 95.58 57.479687 96.25 57.179688 C 96.92 56.879686 97.709609 56.730469 98.599609 56.730469 z M 23.769531 56.740234 L 24.019531 56.740234 C 25.379531 56.740234 26.690625 57.130938 27.640625 57.710938 C 27.720625 57.760938 27.809766 57.860234 27.759766 57.990234 C 27.719766 58.110234 27.3 59.239141 27.25 59.369141 C 27.16 59.609141 26.919922 59.449219 26.919922 59.449219 C 26.089922 58.989219 24.800937 58.630859 23.710938 58.630859 C 22.730937 58.630859 22.099609 59.149375 22.099609 59.859375 L 22.099609 59.900391 C 22.099609 60.720391 23.189453 61.070469 24.439453 61.480469 L 24.660156 61.550781 C 26.330156 62.070781 28.099609 62.800781 28.099609 64.800781 L 28.099609 64.839844 C 28.099609 66.999844 26.53 68.349609 24 68.349609 C 22.75 68.349609 21.570547 68.160234 20.310547 67.490234 C 20.080547 67.350234 19.839375 67.230547 19.609375 67.060547 C 19.589375 67.020547 19.480547 66.979297 19.560547 66.779297 L 20.039062 65.410156 C 20.119062 65.180156 20.299141 65.250781 20.369141 65.300781 C 20.509141 65.380781 20.609063 65.460547 20.789062 65.560547 C 22.259062 66.490547 23.620781 66.5 24.050781 66.5 C 25.150781 66.5 25.830078 65.910859 25.830078 65.130859 L 25.830078 65.089844 C 25.830078 64.239844 24.780547 63.909062 23.560547 63.539062 L 23.289062 63.460938 C 21.619062 62.980936 19.839844 62.289687 19.839844 60.179688 L 19.839844 60.140625 C 19.839844 58.140625 21.459531 56.740234 23.769531 56.740234 z M 34.199219 56.740234 C 35.629219 56.740234 36.730469 57.070469 37.480469 57.730469 C 38.240469 58.380469 38.619141 59.450859 38.619141 60.880859 L 38.619141 67.419922 C 38.619141 67.419922 38.640937 67.610391 38.460938 67.650391 C 38.460938 67.650391 38.200938 67.719297 37.960938 67.779297 C 37.720937 67.839297 36.860156 68.010859 36.160156 68.130859 C 35.450156 68.250859 34.720234 68.310547 33.990234 68.310547 C 33.300234 68.310547 32.659609 68.249141 32.099609 68.119141 C 31.529609 67.989141 31.040625 67.780234 30.640625 67.490234 C 30.240625 67.200234 29.930937 66.819141 29.710938 66.369141 C 29.490938 65.919141 29.380859 65.370234 29.380859 64.740234 C 29.380859 64.120234 29.509766 63.559844 29.759766 63.089844 C 30.019766 62.619844 30.370781 62.220156 30.800781 61.910156 C 31.230781 61.600156 31.729063 61.370703 32.289062 61.220703 C 32.849063 61.070703 33.440781 60.990234 34.050781 60.990234 C 34.500781 60.990234 34.879922 60.999531 35.169922 61.019531 C 35.169922 61.019531 35.729375 61.070391 36.359375 61.150391 L 36.359375 60.849609 C 36.359375 59.899609 36.159531 59.450391 35.769531 59.150391 C 35.369531 58.840391 34.77 58.689453 34 58.689453 C 34 58.689453 32.270625 58.669922 30.890625 59.419922 C 30.820625 59.459922 30.769531 59.480469 30.769531 59.480469 C 30.769531 59.480469 30.599062 59.539375 30.539062 59.359375 L 30.029297 58 C 29.949297 57.81 30.089844 57.720703 30.089844 57.720703 C 30.729844 57.220703 32.289062 56.919922 32.289062 56.919922 C 32.799062 56.809922 33.659219 56.740234 34.199219 56.740234 z M 60.800781 56.740234 L 61.050781 56.740234 C 62.410781 56.740234 63.719922 57.130938 64.669922 57.710938 C 64.749922 57.760938 64.839062 57.860234 64.789062 57.990234 C 64.749062 58.110234 64.329297 59.239141 64.279297 59.369141 C 64.189297 59.609141 63.949219 59.449219 63.949219 59.449219 C 63.119219 58.989219 61.830234 58.630859 60.740234 58.630859 C 59.760234 58.630859 59.130859 59.149375 59.130859 59.859375 L 59.130859 59.900391 C 59.130859 60.720391 60.220703 61.070469 61.470703 61.480469 L 61.689453 61.550781 C 63.359453 62.070781 65.130859 62.800781 65.130859 64.800781 L 65.130859 64.839844 C 65.130859 66.999844 63.559297 68.349609 61.029297 68.349609 C 59.779297 68.349609 58.599844 68.160234 57.339844 67.490234 C 57.109844 67.350234 56.870625 67.230547 56.640625 67.060547 C 56.620625 67.020547 56.509844 66.979297 56.589844 66.779297 L 57.070312 65.410156 C 57.140313 65.190156 57.350391 65.270781 57.400391 65.300781 C 57.540391 65.380781 57.640313 65.460547 57.820312 65.560547 C 59.290312 66.490547 60.650078 66.5 61.080078 66.5 C 62.180078 66.5 62.859375 65.910859 62.859375 65.130859 L 62.859375 65.089844 C 62.859375 64.239844 61.809844 63.909062 60.589844 63.539062 L 60.320312 63.460938 C 58.650312 62.980936 56.869141 62.289687 56.869141 60.179688 L 56.869141 60.140625 C 56.869141 58.140625 58.490781 56.740234 60.800781 56.740234 z M 50.560547 56.759766 C 51.330547 56.759766 52.029375 56.919922 52.609375 57.169922 C 53.059375 57.359922 53.510703 57.699219 53.970703 58.199219 C 54.260703 58.509219 54.700859 59.189141 54.880859 59.869141 C 55.340859 61.479141 55.099609 62.870703 55.099609 62.970703 C 55.079609 63.160703 54.890625 63.160156 54.890625 63.160156 L 47.740234 63.150391 C 47.780234 64.240391 48.040312 65.009297 48.570312 65.529297 C 49.080312 66.039297 49.899766 66.369141 51.009766 66.369141 C 52.699766 66.369141 53.429453 66.029844 53.939453 65.839844 C 53.939453 65.839844 54.140935 65.770938 54.210938 65.960938 L 54.679688 67.269531 C 54.769688 67.489531 54.699141 67.569375 54.619141 67.609375 C 54.169141 67.849375 53.079531 68.310312 51.019531 68.320312 C 50.019531 68.320313 49.149687 68.180391 48.429688 67.900391 C 47.699688 67.620391 47.100859 67.220938 46.630859 66.710938 C 46.160859 66.200935 45.809844 65.590625 45.589844 64.890625 C 45.379844 64.200625 45.269531 63.429375 45.269531 62.609375 C 45.269531 61.799375 45.370078 61.030078 45.580078 60.330078 C 45.790078 59.630078 46.120781 59.000469 46.550781 58.480469 C 46.990781 57.950469 47.539219 57.530703 48.199219 57.220703 C 48.859219 56.910703 49.670547 56.759766 50.560547 56.759766 z M 79.130859 56.759766 C 79.980859 56.759766 80.750625 56.910935 81.390625 57.210938 C 82.040625 57.510938 82.579766 57.919453 83.009766 58.439453 C 83.439766 58.949453 83.760703 59.569531 83.970703 60.269531 C 84.180703 60.959531 84.279297 61.729062 84.279297 62.539062 C 84.279297 63.349063 84.180703 64.110547 83.970703 64.810547 C 83.760703 65.510547 83.439766 66.130625 83.009766 66.640625 C 82.579766 67.150625 82.030625 67.569375 81.390625 67.859375 C 80.750625 68.149375 79.990859 68.300781 79.130859 68.300781 C 78.280859 68.300781 77.519141 68.149375 76.869141 67.859375 C 76.229141 67.569375 75.68 67.160625 75.25 66.640625 C 74.82 66.130625 74.499062 65.510547 74.289062 64.810547 C 74.079062 64.110547 73.980469 63.349066 73.980469 62.539062 C 73.980469 61.729063 74.079065 60.969531 74.289062 60.269531 C 74.499066 59.569531 74.82 58.959453 75.25 58.439453 C 75.68 57.929453 76.219141 57.510934 76.869141 57.210938 C 77.509141 56.910936 78.270859 56.759766 79.130859 56.759766 z M 107.7793 56.759766 C 108.5493 56.759766 109.25008 56.919922 109.83008 57.169922 C 110.28008 57.359922 110.72945 57.699219 111.18945 58.199219 C 111.48945 58.509219 111.92937 59.189141 112.10938 59.869141 C 112.56937 61.479141 112.33031 62.870703 112.32031 62.970703 C 112.30031 63.160703 112.10938 63.160156 112.10938 63.160156 L 104.96094 63.150391 C 105.00094 64.240391 105.25906 65.009297 105.78906 65.529297 C 106.29906 66.039297 107.12047 66.369141 108.23047 66.369141 C 109.92047 66.369141 110.65016 66.029844 111.16016 65.839844 C 111.16016 65.839844 111.35969 65.770938 111.42969 65.960938 L 111.90039 67.269531 C 111.99039 67.489531 111.91984 67.569375 111.83984 67.609375 C 111.38984 67.849375 110.30023 68.310312 108.24023 68.320312 C 107.24023 68.320313 106.37039 68.180391 105.65039 67.900391 C 104.92039 67.620391 104.31961 67.220938 103.84961 66.710938 C 103.37961 66.200938 103.03055 65.590625 102.81055 64.890625 C 102.60055 64.200625 102.49023 63.429375 102.49023 62.609375 C 102.49023 61.799375 102.59078 61.030078 102.80078 60.330078 C 103.01078 59.630078 103.33953 59.000469 103.76953 58.480469 C 104.20953 57.950469 104.75992 57.530703 105.41992 57.220703 C 106.07992 56.910703 106.8893 56.759766 107.7793 56.759766 z M 90.894531 56.867188 C 91.074844 56.857031 91.275 56.856641 91.5 56.869141 C 91.97 56.899141 92.579219 57.030078 92.699219 57.080078 C 92.749219 57.100078 92.860547 57.179844 92.810547 57.339844 C 92.740547 57.529844 92.389297 58.510078 92.279297 58.830078 C 92.229297 58.950078 92.159531 59.039531 92.019531 59.019531 C 92.019531 59.019531 91.600469 58.919922 91.230469 58.919922 C 90.970469 58.919922 90.599531 58.960547 90.269531 59.060547 C 89.949531 59.160547 89.650625 59.339844 89.390625 59.589844 C 89.130625 59.839844 88.909766 60.200625 88.759766 60.640625 C 88.599766 61.090625 88.519531 61.809531 88.519531 62.519531 L 88.519531 67.849609 C 88.519531 67.969609 88.420781 68.070314 88.300781 68.070312 L 86.419922 68.070312 C 86.299922 68.070312 86.199219 67.969609 86.199219 67.849609 L 86.199219 57.189453 C 86.199219 57.069453 86.290156 56.970703 86.410156 56.970703 L 88.240234 56.970703 C 88.360234 56.970703 88.449219 57.069453 88.449219 57.189453 L 88.449219 58.060547 C 88.729219 57.690547 89.220156 57.369922 89.660156 57.169922 C 89.990156 57.019922 90.353594 56.897656 90.894531 56.867188 z M 50.390625 58.630859 C 49.450625 58.630859 48.789609 58.999922 48.349609 59.669922 C 48.059609 60.109922 47.869531 60.679375 47.769531 61.359375 L 52.859375 61.359375 C 52.809375 60.699375 52.680625 60.109922 52.390625 59.669922 C 51.950625 58.999922 51.330625 58.630859 50.390625 58.630859 z M 107.63086 58.630859 C 106.69086 58.630859 106.02984 58.999922 105.58984 59.669922 C 105.29984 60.109922 105.10977 60.679375 105.00977 61.359375 L 110.09961 61.359375 C 110.04961 60.699375 109.93086 60.109922 109.63086 59.669922 C 109.19086 58.999922 108.57086 58.630859 107.63086 58.630859 z M 79.130859 58.689453 C 78.190859 58.689453 77.520078 59.009684 77.080078 59.679688 C 76.630078 60.359687 76.410156 61.319065 76.410156 62.539062 C 76.410156 63.759063 76.640078 64.730156 77.080078 65.410156 C 77.520078 66.080156 78.190859 66.410156 79.130859 66.410156 C 80.060859 66.410156 80.739688 66.080156 81.179688 65.410156 C 81.629687 64.730156 81.859375 63.759062 81.859375 62.539062 C 81.859375 61.309064 81.629453 60.349688 81.189453 59.679688 C 80.739453 59.009687 80.070859 58.689453 79.130859 58.689453 z M 34.410156 62.789062 C 32.950156 62.769062 32.329844 63.310547 32.339844 63.310547 C 31.909844 63.610547 31.699219 64.059453 31.699219 64.689453 C 31.699219 65.089453 31.770156 65.399141 31.910156 65.619141 C 32.000156 65.759141 32.040312 65.819062 32.320312 66.039062 C 32.320313 66.039062 32.959922 66.550703 34.419922 66.470703 C 35.439922 66.400703 36.349609 66.21093 36.349609 66.210938 L 36.349609 62.960938 C 36.349609 62.960938 35.430156 62.799062 34.410156 62.789062 z "
   style="fill:#00a1e0;fill-opacity:1" />
</svg>

<svg xmlns="http://www.w3.org/2000/svg" viewBox="0 0 128 128"><path d="M33.97 22.03c-13.23 0-23.95 10.71-23.95 23.92 0 3.38.7 6.6 1.97 9.51A20.814 20.814 0 001.7 73.47c0 11.48 9.21 20.79 20.58 20.79 1.45 0 2.87-.15 4.23-.44 3.12 8.47 11.25 14.51 20.8 14.51 9.17 0 17.03-5.57 20.41-13.51a19.235 19.235 0 008.5 1.96c7.28 0 13.63-4.01 16.96-9.95 1.7.34 3.45.52 5.24.52 14.68 0 26.58-12.01 26.58-26.82 0-14.8-11.9-26.81-26.58-26.81-3.83 0-7.46.82-10.75 2.29-3.78-6.74-10.88-11.28-19.02-11.28-6.13 0-11.66 2.57-15.64 6.71-4.37-5.72-11.28-9.42-19.04-9.41zM73.5 52.16c.37 0 .7.02.97.07s.48.1.71.17c.05.02.19.09.13.26l-.55 1.5c-.04.11-.08.18-.31.11-.06-.02-.15-.04-.37-.09a2.61 2.61 0 00-.59-.06c-.29 0-.54.04-.77.11-.22.07-.42.19-.6.37s-.39.44-.5.76c-.26.75-.37 1.56-.38 1.61h2.29c.19 0 .25.09.23.23l-.27 1.49c-.04.22-.24.21-.24.21H70.9l-1.61 9.11c-.17.94-.38 1.75-.63 2.4-.25.66-.51 1.14-.93 1.6-.39.42-.82.74-1.32.92-.49.18-1.09.27-1.75.27-.32 0-.65-.01-1.05-.1a7.71 7.71 0 01-.65-.19c-.09-.04-.16-.15-.11-.29.05-.14.47-1.3.53-1.45.08-.18.26-.11.26-.11.13.05.22.09.39.12s.4.06.57.06c.31 0 .59-.04.84-.12.3-.1.47-.27.65-.5.19-.25.34-.58.5-1.02.16-.45.31-1.04.43-1.76l1.6-8.94h-1.58c-.19 0-.25-.09-.23-.23l.27-1.49c.04-.22.24-.21.24-.21h1.62l.09-.48c.25-1.43.73-2.52 1.44-3.24.72-.72 1.74-1.09 3.03-1.09zm-32.35.22h1.9c.12 0 .21.1.21.22v15.25c0 .12-.09.22-.21.22h-1.9c-.12 0-.2-.1-.2-.22V52.6c0-.12.08-.22.2-.22zm57.45 4.35c.59 0 1.12.04 1.58.11.49.07 1.14.24 1.41.35.05.02.19.09.13.25-.2.56-.34.93-.52 1.44-.08.22-.25.15-.25.15-.69-.22-1.36-.32-2.23-.32-1.04 0-1.83.35-2.34 1.03-.52.68-.81 1.58-.81 2.78 0 1.32.33 2.29.91 2.89.59.6 1.4.9 2.42.9.42 0 .81-.03 1.16-.08.35-.05.67-.16.98-.28 0 0 .2-.08.27.13l.53 1.42c.06.18-.09.25-.09.25-.8.31-1.91.53-2.99.53-1.83 0-3.24-.53-4.17-1.57-.94-1.03-1.41-2.45-1.41-4.2 0-.81.11-1.57.34-2.27.23-.7.58-1.31 1.03-1.83.45-.52 1.03-.93 1.7-1.23.67-.3 1.46-.45 2.35-.45zm-74.83.01h.25c1.36 0 2.67.39 3.62.97.08.05.17.15.12.28-.04.12-.46 1.25-.51 1.38-.09.24-.33.08-.33.08-.83-.46-2.12-.82-3.21-.82-.98 0-1.61.52-1.61 1.23v.04c0 .82 1.09 1.17 2.34 1.58l.22.07c1.67.52 3.44 1.25 3.44 3.25v.04c0 2.16-1.57 3.51-4.1 3.51-1.25 0-2.43-.19-3.69-.86-.23-.14-.47-.26-.7-.43-.02-.04-.13-.08-.05-.28l.48-1.37c.08-.23.26-.16.33-.11.14.08.24.16.42.26 1.47.93 2.83.94 3.26.94 1.1 0 1.78-.59 1.78-1.37v-.04c0-.85-1.05-1.18-2.27-1.55l-.27-.08c-1.67-.48-3.45-1.17-3.45-3.28v-.04c0-2 1.62-3.4 3.93-3.4zm10.43 0c1.43 0 2.53.33 3.28.99.76.65 1.14 1.72 1.14 3.15v6.54s.02.19-.16.23c0 0-.26.07-.5.13s-1.1.23-1.8.35c-.71.12-1.44.18-2.17.18a8.46 8.46 0 01-1.89-.19c-.57-.13-1.06-.34-1.46-.63-.4-.29-.71-.67-.93-1.12-.22-.45-.33-1-.33-1.63 0-.62.13-1.18.38-1.65.26-.47.61-.87 1.04-1.18.43-.31.93-.54 1.49-.69.56-.15 1.15-.23 1.76-.23.45 0 .83.01 1.12.03 0 0 .56.05 1.19.13v-.3c0-.95-.2-1.4-.59-1.7-.4-.31-1-.46-1.77-.46 0 0-1.73-.02-3.11.73-.07.04-.12.06-.12.06s-.17.06-.23-.12L30.03 58c-.08-.19.06-.28.06-.28.64-.5 2.2-.8 2.2-.8.51-.11 1.37-.18 1.91-.18zm26.6 0h.25c1.36 0 2.67.39 3.62.97.08.05.17.15.12.28-.04.12-.46 1.25-.51 1.38-.09.24-.33.08-.33.08-.83-.46-2.12-.82-3.21-.82-.98 0-1.61.52-1.61 1.23v.04c0 .82 1.09 1.17 2.34 1.58l.22.07c1.67.52 3.44 1.25 3.44 3.25v.04c0 2.16-1.57 3.51-4.1 3.51-1.25 0-2.43-.19-3.69-.86-.23-.14-.47-.26-.7-.43-.02-.04-.13-.08-.05-.28l.48-1.37c.07-.22.28-.14.33-.11.14.08.24.16.42.26 1.47.93 2.83.94 3.26.94 1.1 0 1.78-.59 1.78-1.37v-.04c0-.85-1.05-1.18-2.27-1.55l-.27-.08c-1.67-.48-3.45-1.17-3.45-3.28v-.04c0-2 1.62-3.4 3.93-3.4zm-10.24.02c.77 0 1.47.16 2.05.41.45.19.9.53 1.36 1.03.29.31.73.99.91 1.67.46 1.61.22 3 .22 3.1-.02.19-.21.19-.21.19l-7.15-.01c.04 1.09.3 1.86.83 2.38.51.51 1.33.84 2.44.84 1.69 0 2.42-.34 2.93-.53 0 0 .2-.07.27.12l.47 1.31c.09.22.02.3-.06.34-.45.24-1.54.7-3.6.71-1 0-1.87-.14-2.59-.42-.73-.28-1.33-.68-1.8-1.19a4.765 4.765 0 01-1.04-1.82 7.86 7.86 0 01-.32-2.28c0-.81.1-1.58.31-2.28.21-.7.54-1.33.97-1.85.44-.53.99-.95 1.65-1.26.66-.31 1.47-.46 2.36-.46zm28.57 0c.85 0 1.62.15 2.26.45.65.3 1.19.71 1.62 1.23.43.51.75 1.13.96 1.83.21.69.31 1.46.31 2.27s-.1 1.57-.31 2.27-.53 1.32-.96 1.83c-.43.51-.98.93-1.62 1.22-.64.29-1.4.44-2.26.44-.85 0-1.61-.15-2.26-.44a4.473 4.473 0 01-1.62-1.22c-.43-.51-.75-1.13-.96-1.83a7.895 7.895 0 01-.31-2.27c0-.81.1-1.57.31-2.27s.53-1.31.96-1.83c.43-.51.97-.93 1.62-1.23.64-.3 1.4-.45 2.26-.45zm28.65 0c.77 0 1.47.16 2.05.41.45.19.9.53 1.36 1.03.3.31.74.99.92 1.67.46 1.61.22 3 .21 3.1-.02.19-.21.19-.21.19l-7.15-.01c.04 1.09.3 1.86.83 2.38.51.51 1.33.84 2.44.84 1.69 0 2.42-.34 2.93-.53 0 0 .2-.07.27.12l.47 1.31c.09.22.02.3-.06.34-.45.24-1.54.7-3.6.71-1 0-1.87-.14-2.59-.42-.73-.28-1.33-.68-1.8-1.19-.47-.51-.82-1.12-1.04-1.82a7.86 7.86 0 01-.32-2.28c0-.81.1-1.58.31-2.28.21-.7.54-1.33.97-1.85.44-.53.99-.95 1.65-1.26.66-.31 1.47-.46 2.36-.46zm-16.885.107c.18-.01.38-.01.605.002.47.03 1.08.161 1.2.211.05.02.16.1.11.26-.07.19-.42 1.17-.53 1.49-.05.12-.12.21-.26.19 0 0-.42-.1-.79-.1-.26 0-.63.04-.96.14-.32.1-.62.28-.88.53s-.48.61-.63 1.05c-.16.45-.24 1.17-.24 1.88v5.33c0 .12-.1.22-.22.22h-1.88c-.12 0-.22-.1-.22-.22V57.19c0-.12.09-.22.21-.22h1.83c.12 0 .21.1.21.22v.87c.28-.37.77-.69 1.21-.89.33-.15.694-.272 1.235-.303zM50.39 58.631c-.94 0-1.601.369-2.041 1.039-.29.44-.48 1.01-.58 1.69h5.09c-.05-.66-.18-1.25-.47-1.69-.44-.67-1.06-1.04-2-1.04zm57.24 0c-.94 0-1.601.369-2.041 1.039-.29.44-.48 1.01-.58 1.69h5.09c-.05-.66-.17-1.25-.47-1.69-.44-.67-1.06-1.04-2-1.04zm-28.5.058c-.94 0-1.61.32-2.05.99-.45.68-.67 1.64-.67 2.86s.23 2.191.67 2.871c.44.67 1.11 1 2.05 1 .93 0 1.609-.33 2.049-1 .45-.68.68-1.65.68-2.87 0-1.23-.23-2.19-.67-2.86-.45-.67-1.12-.99-2.06-.99zm-44.72 4.1c-1.46-.02-2.081.522-2.071.522-.43.3-.64.748-.64 1.378 0 .4.07.71.21.93.09.14.13.2.41.42 0 0 .64.512 2.1.432 1.02-.07 1.93-.26 1.93-.26v-3.25s-.92-.162-1.94-.172z" fill="#00a1e0"/></svg>
